X:179
%%etbk:tnset id:57,pos:3,rep:3x,ant:
%%etbk:tnset id:257,pos:8,rep:2x,ant:
%%etbk:tnset id:276,pos:2,rep:3x,ant:
%%etbk:wsite http://www.thesession.org/tunes/display/182
%%etbk:pldat 2016-06-23T18:15,2016-06-21T15:57,2016-05-04T15:19,2016-05-02T18:53,2016-04-09T16:07,2016-04-07T17:00,2016-04-05T16:33,2016-04-04T18:15,2016-03-30T16:54,2016-03-09T16:49,2016-03-08T15:17,2016-02-29T19:36,2015-10-27T17:26,2015-10-25T14:43,2015-10-21T16:22,2015-10-07T16:58,2015-06-22T18:58,2015-05-28T19:02,2015-03-13T18:18,2015-03-09T17:55,2015-03-04T16:28,2015-02-14T14:18,2014-11-06T18:04,2014-11-04T16:27,2014-10-30T19:13,2014-10-28T15:59,2014-10-28T15:42,2014-10-25T15:02,2014-10-23T18:37,2014-08-21T18:27,2014-08-02T16:10,2014-07-30T18:11,2014-07-29T17:50,2014-06-22T16:07,2014-06-13T15:25,2014-03-06T18:39,2014-03-04T19:21,2014-03-01T15:53,2014-02-23T11:25,2013-10-29T17:17,2013-10-27T15:06,2013-10-23T18:24,2013-10-16T15:58,2013-10-13T14:10,2013-10-08T16:24,2013-05-10T16:17
T: Silver Spear, The
Z: Piano Box Version by Martin Fleischmann
H: Created 2013-02-19 /  Last Modified 2013-02-19
M: 4/4
L: 1/8
R: reel
K: Dmaj
|: "D"!2!F2!4!A!1!A !2!B!1!A!2!F!1!A | !3!dfed "G"!2!Bdd!1!A | "D"!2!F2!1!AA {d}!2!B!1!A!2!F!1!A | !3!dfed "G"!2!B{d}B!1!A2 |
 "D"!2!F2!1!AA !2!B!1!A !3!(3A!2!A!1!A | !3!dfed !2!B!1!def | "G"!4!g!3!g!4!ge "D"!3!f2fe | !1!dfe!1!d !2!B{d}B!1!A2:|
|: "D"!3!f2!4!af !5!bf!4!a!3!f | "A"!4!gfe!1!d !2!B!1!dde | "D"!3!f2!4!af !5!bf!4!a!3!f | "A"!4!gfe!1!d !2!B{d}B!1!A2 |
 "D"!3!f2!4!af !5!bf!4!a!3!f | !4!gfe!1!d !2!B!1!def | "G"!4!g!3!g!4!ge "D"!3!f3e | !1!dfe!1!d !2!B{d}B!1!A2:|


